build/img/sprite_auto.svg

<svg xmlns="http://www.w3.org/2000/svg" xmlns:xlink="http://www.w3.org/1999/xlink"><symbol id="icon-arrow-right" viewBox="0 0 8 12">
<path fill-rule="evenodd" clip-rule="evenodd" d="M0 1.4L4.6 6L0 10.6L1.4 12L7.4 6L1.4 0L0 1.4Z" fill="#2C2E3F" fill-opacity="0.5"/>
</symbol><symbol id="icon-burger" viewBox="0 0 30 30">
<path fill-rule="evenodd" clip-rule="evenodd" d="M3.75 21H26.25V20H3.75V21ZM3.75 14.75H26.25V13.75H3.75V14.75ZM3.75 7.5V8.5H26.25V7.5H3.75Z" fill="black"/>
</symbol><symbol id="icon-close" viewBox="0 0 24 25">
<path d="M1 23.7213L23 1M23 23.7213L1 1" stroke="#141517" stroke-opacity="0.2" stroke-linecap="round" stroke-linejoin="round"/>
</symbol><symbol id="icon-main-logo" viewBox="0 0 68 21">
<path d="M13.3636 0V20.0455H10.0705V5.82273L8.97273 7.20682L6.825 9.975L6.72954 10.0705L6.58636 9.975L4.43864 7.20682L3.34091 5.775V20.0455H0V0H3.34091L6.72954 4.29545L10.0705 0H13.3636Z" fill="#0AD9C6"/>
<path d="M8.30444 10.0704L8.20898 9.97498L8.30444 10.0704Z" fill="#0AD9C6"/>
<path d="M8.44787 9.97498L8.35241 10.0704H8.30469L8.44787 9.97498Z" fill="#0AD9C6"/>
<path d="M38.2092 5.61453L29.0823 12.316L31.1955 15.194L40.3224 8.49252L38.2092 5.61453Z" fill="#0AD9C6"/>
<path d="M26.6674 3C22.8035 3 19.6243 6.13028 19.6243 10.0431C19.6243 13.9071 22.7546 17.0863 26.6674 17.0863C30.5313 17.0863 33.7105 13.956 33.7105 10.0431C33.7105 6.17919 30.5313 3 26.6674 3ZM26.6674 13.2712C24.8577 13.2712 23.4393 11.8039 23.4393 10.0431C23.4393 8.23344 24.9066 6.81503 26.6674 6.81503C28.4282 6.81503 29.8955 8.28235 29.8955 10.0431C29.8955 11.8039 28.4282 13.2712 26.6674 13.2712Z" fill="#0AD9C6"/>
<path d="M43.6396 3C39.7756 3 36.5964 6.13028 36.5964 10.0431C36.5964 13.9071 39.7267 17.0863 43.6396 17.0863C47.5035 17.0863 50.6827 13.956 50.6827 10.0431C50.6338 6.17919 47.5035 3 43.6396 3ZM43.6396 13.2712C41.8299 13.2712 40.4115 11.8039 40.4115 10.0431C40.4115 8.23344 41.8788 6.81503 43.6396 6.81503C45.4004 6.81503 46.8677 8.28235 46.8677 10.0431C46.8677 11.8039 45.4004 13.2712 43.6396 13.2712Z" fill="#0AD9C6"/>
<path d="M67.5977 0.238647V20.2841H64.2568V9.87956L61.4409 7.20683L59.3409 5.15456V20.2841H56V0.238647H59.2932H59.3409L63.2545 4.0091L64.2568 4.96365V0.238647H67.5977Z" fill="#0AD9C6"/>
</symbol><symbol id="icon-message" viewBox="0 0 26 20">
<path d="M24.2273 0H1.77273C0.768182 0 0 0.764706 0 1.76471V18.2353C0 19.2353 0.768182 20 1.77273 20H24.2273C25.2318 20 26 19.2353 26 18.2353V1.76471C26 0.764706 25.2318 0 24.2273 0ZM24.2273 17L19.5591 12.3529C19.2045 12 18.6727 12 18.3182 12.3529C17.9636 12.7059 17.9636 13.2353 18.3182 13.5882L22.9864 18.2353H3.01362L7.68182 13.5882C8.03636 13.2353 8.03636 12.7059 7.68182 12.3529C7.32727 12 6.79547 12 6.44092 12.3529L1.77273 17V5.70585L12.4091 13.7059C12.5864 13.8236 12.7636 13.8823 12.9409 13.8823C13.1182 13.8823 13.2954 13.8236 13.4727 13.7059L24.2273 5.70585V17ZM24.2273 1.76471V3.4706L12.9409 11.8235L1.77273 3.4706V1.76471H24.2273Z" fill="#0AD9C6"/>
</symbol><symbol id="icon-phone" viewBox="0 0 17 24">
<path fill="none" d="M1.45641 6.62432C1.37185 5.42623 1.63759 4.24606 2.3412 3.29684C2.9512 2.43632 3.74541 1.96636 4.70269 1.69172C5.50898 1.4525 6.03745 1.74561 6.26998 2.64204C6.60217 3.98224 7.07628 5.3225 7.24841 6.73361C7.30277 7.35485 6.90114 8.23322 6.46629 8.6856C5.37614 9.75888 5.60263 10.5399 6.43006 12.1643C6.68675 12.6881 7.09442 13.5934 7.88864 14.7919C8.71607 15.9992 9.15395 16.6472 10.2169 16.0975C11.3977 15.5035 12.2583 15.8855 13.1492 16.8444C13.7531 17.5369 14.4175 18.1318 15.0215 18.8243C15.8942 19.8542 15.8549 20.5641 15.1725 21.2915C13.9434 22.6309 11.9141 23.0736 10.4042 22.1766C9.5707 21.6881 8.74024 21.0487 8.0789 20.303C5.16477 16.9825 3.06297 13.1212 1.79765 8.76321C1.59532 8.02654 1.50171 7.28104 1.45641 6.62432Z" stroke="#0AD9C6" stroke-width="2" stroke-miterlimit="10"/>
</symbol><symbol id="icon-play" viewBox="0 0 14 19">
<path fill-rule="evenodd" clip-rule="evenodd" d="M0.600098 0.399902L13.6001 9.4999L0.600098 18.5999V0.399902Z" fill="#070707"/>
</symbol></svg>

<svg xmlns="http://www.w3.org/2000/svg" xmlns:xlink="http://www.w3.org/1999/xlink"><symbol id="icon-arrow-right"><path fill-rule="evenodd" clip-rule="evenodd" d="M0 1.4L4.6 6 0 10.6 1.4 12l6-6-6-6L0 1.4z" fill="#2C2E3F" fill-opacity=".5"/></symbol><symbol id="icon-burger"><path fill-rule="evenodd" clip-rule="evenodd" d="M3.75 21h22.5v-1H3.75v1zm0-6.25h22.5v-1H3.75v1zm0-7.25v1h22.5v-1H3.75z" fill="#000"/></symbol><symbol id="icon-close"><path d="M1 23.721L23 1m0 22.721L1 1" stroke="#141517" stroke-opacity=".2" stroke-linecap="round" stroke-linejoin="round"/></symbol><symbol id="icon-main-logo"><path d="M13.364 0v20.046H10.07V5.822L8.973 7.207 6.825 9.975l-.095.095-.144-.095L4.44 7.207l-1.1-1.432v14.27H0V0h3.34l3.39 4.295L10.07 0h3.294zm-5.06 10.07l-.095-.095.095.095z" fill="#0AD9C6"/><path d="M8.448 9.975l-.096.095h-.047l.143-.095zm29.762-4.36l-9.128 6.701 2.113 2.878 9.127-6.701-2.113-2.878z" fill="#0AD9C6"/><path d="M26.667 3c-3.864 0-7.043 3.13-7.043 7.043 0 3.864 3.13 7.043 7.043 7.043 3.864 0 7.044-3.13 7.044-7.043C33.71 6.18 30.53 3 26.667 3zm0 10.271a3.225 3.225 0 01-3.228-3.228 3.225 3.225 0 013.228-3.228c1.761 0 3.228 1.467 3.228 3.228 0 1.76-1.467 3.228-3.228 3.228zM43.64 3c-3.864 0-7.044 3.13-7.044 7.043 0 3.864 3.13 7.043 7.044 7.043 3.864 0 7.043-3.13 7.043-7.043C50.633 6.18 47.503 3 43.64 3zm0 10.271a3.225 3.225 0 01-3.229-3.228 3.225 3.225 0 013.229-3.228c1.76 0 3.228 1.467 3.228 3.228 0 1.76-1.468 3.228-3.228 3.228zM67.598.239v20.045h-3.341V9.88L61.44 7.207l-2.1-2.052v15.13H56V.238h3.341l3.913 3.77 1.003.955V.239h3.34z" fill="#0AD9C6"/></symbol><symbol id="icon-message"><path d="M24.227 0H1.773C.768 0 0 .765 0 1.765v16.47C0 19.235.768 20 1.773 20h22.454C25.232 20 26 19.235 26 18.235V1.765C26 .765 25.232 0 24.227 0zm0 17l-4.668-4.647a.86.86 0 00-1.24 0 .85.85 0 000 1.235l4.667 4.647H3.014l4.668-4.647a.85.85 0 000-1.235.86.86 0 00-1.241 0L1.773 17V5.706l10.636 8a.955.955 0 00.532.176.955.955 0 00.532-.176l10.754-8V17zm0-15.235V3.47l-11.286 8.352L1.773 3.471V1.765h22.454z" fill="#0AD9C6"/></symbol><symbol id="icon-phone"><path d="M1.456 6.624c-.084-1.198.182-2.378.885-3.327.61-.86 1.404-1.33 2.362-1.605.806-.24 1.334.054 1.567.95.332 1.34.806 2.68.978 4.092.055.62-.347 1.5-.782 1.952-1.09 1.073-.863 1.854-.036 3.478.257.524.664 1.43 1.459 2.628.827 1.207 1.265 1.855 2.328 1.306 1.18-.594 2.041-.212 2.932.746.604.693 1.269 1.288 1.873 1.98.872 1.03.833 1.74.15 2.467-1.229 1.34-3.258 1.783-4.768.886-.833-.489-1.664-1.128-2.325-1.874-2.914-3.32-5.016-7.182-6.281-11.54a10.989 10.989 0 01-.342-2.139z" stroke="#0AD9C6" stroke-width="2" stroke-miterlimit="10"/></symbol><symbol id="icon-play"><path fill-rule="evenodd" clip-rule="evenodd" d="M.6.4l13 9.1-13 9.1V.4z" fill="#070707"/></symbol></svg>
